theme/img/top/txt_a.svg

<svg width="130" height="126" viewBox="0 0 130 126" fill="none" xmlns="http://www.w3.org/2000/svg">
<path d="M93.9727 125.614C93.0449 119.56 91.8486 114.14 90.3838 109.354L86.3555 96.6836H43.582L39.5537 109.354C37.6494 115.458 36.4043 120.878 35.8184 125.614H0.735352C2.59082 121.806 5.00781 115.702 7.98633 107.304L40.3594 17.0693C42.9961 9.69629 44.6074 4.27637 45.1934 0.80957H84.3779C85.0615 4.37402 86.7217 9.79395 89.3584 17.0693L121.951 107.304C124.832 115.36 127.225 121.464 129.129 125.614H93.9727ZM79.0312 71.4883L64.8223 26.5176L50.7598 71.4883H79.0312Z" fill="url(#paint0_linear_3_308)"/>
<defs>
<linearGradient id="paint0_linear_3_308" x1="-528" y1="-42.8157" x2="279.828" y2="385.126" gradientUnits="userSpaceOnUse">
<stop stop-color="#001F63"/>
<stop offset="1" stop-color="#00E1EC"/>
</linearGradient>
</defs>
</svg>

<svg xmlns="http://www.w3.org/2000/svg" width="130" height="126" fill="none"><path fill="url(#a)" d="M93.973 125.614q-1.392-9.081-3.59-16.26l-4.027-12.67H43.582l-4.028 12.67q-2.857 9.156-3.736 16.26H.735q2.784-5.713 7.251-18.31L40.36 17.069Q44.314 6.01 45.193.81h39.185q1.025 5.347 4.98 16.26l32.593 90.235q4.322 12.084 7.178 18.31zM79.03 71.488l-14.209-44.97-14.062 44.97z"/><defs><linearGradient id="a" x1="-528" x2="279.828" y1="-42.816" y2="385.126" gradientUnits="userSpaceOnUse"><stop stop-color="#001F63"/><stop offset="1" stop-color="#00E1EC"/></linearGradient></defs></svg>
